!!!OTL@@DE: Wenn die Schwalben heimw&auml;rts ziehn
!!!ONB: Abschied
!!!COM: Abt, Franz
!!!ODT: 1842
!!!OMD: Andantino
!!!LYR: Herlosssohn, Carl
!!!LDT: 1842
!!!OCL: Erk, Ludwig
!!!GCO: Deutscher Liederschatz, Band 1
**kern	**kern	**kern
*staff3	*staff2	*staff1
*Ipiano	*Ipiano	*Ivox
*>[I,A,I]	*>[I,A,I]	*>[I,A,I]
*>I	*>I	*>I
*clefF4	*clefG2	*clefG2
*k[f#c#g#]	*k[f#c#g#]	*k[f#c#g#]
*A:	*A:	*A:
*M3/4	*M3/4	*M3/4
*MM84	*MM84	*MM84
8AA/ 8E/L	8A/ 8c#/L	4r
8AA/ 8E/J	8B/ 8d/J	.
=1	=1	=1
4.AA/ 4.E/	4.c#/ 4.e/	2.r
8AA/ 8E/	8c#/ 8cc#/	.
8.AA/ 8.Fn/L	8.d^/ 8.cc#^/L	.
16AA/ 16F/Jk	16d/ 16b/Jk	.
=2	=2	=2
4.AA/ 4.E/	4.c#/ 4.a/	2.r
(8C#'/L	(8A'/ 8e'/ 8a'/L	.
8D'/	8A'/ 8e'/ 8g#'/	.
8D'/J)	8A'/) 8d'/ 8f#'/J	.
=3	=3	=3
8E\	8A/ 8c#/ 8e/	2.r
*^	*	*
(8E/L	8r	8r	.
8D#/	4r	4r	.
8E/J)	.	.	.
8.G#/ 8.c#/L	4EE^\ 4Dn^\	4r	.
16B/Jk	.	.	.
=4	=4	=4	=4
8C#/ 8A/	8AAA\ 8AA\	8r	8r
*v	*v	*	*
=	=	=
*>A	*>A	*>A
*^	*	*
(8E/L	8r	8r	8r
8A/ 8c#/	4r	4r	4r
8E/J)	.	.	.
8.A/ 8.c#/L	4r	4r	8.c#/
16B/ 16d/Jk	.	.	16d/
=5	=5	=5	=5
8c#/ (8e/L	2AAA\ 2AA\	2.r	4.e/
8E/	.	.	.
8A/ 8c#/	.	.	.
8E/J)	.	.	8a/
*	*^	*	*
(8.e/L	8c#\L	4EE\	.	8.cc#^\
.	8G#\J	.	.	.
16d/Jk)	.	.	.	16b\
*	*v	*v	*	*
=6	=6	=6	=6
8A/ (8c#/L	2AAA\ 2AA\	2.r	2a/
8E/	.	.	.
8c#/ 8e/	.	.	.
8E/J	.	.	.
8B/ 8d/L)	4DD\	.	8g#/
8F#/J	.	.	8f#/
=7	=7	=7	=7
8r	2EE\	2.r	[4e/
8E/L	.	.	.
8A/ 8c#/	.	.	16e/LL]
.	.	.	16a/JJ
8E/	.	.	16g#/LL
.	.	.	16f#/JJ
8G#/ 8d/	4EE\	.	8.e/
8E/J	.	.	.
.	.	.	16d/
=8	=8	=8	=8
8r	2AA\	2.r	4c#/
8E/L	.	.	.
8A/ 8c#/	.	.	4r
8E/J	.	.	.
8c#/L	8AA\L	.	8c#/
8B/ 8c#/ 8e#/J	8GG#\J	.	8e#/
*v	*v	*	*
=9	=9	=9
2.FF#/	8A/ 8f#/L	4.f#/
.	8c#/	.
.	8A/ 8f#/	.
.	8c#/	8f#/
.	8B/ 8e#/	8.g#/
.	8c#/J	.
.	.	16c#/
=10	=10	=10
2FF#/	8r	2a/
.	8c#/L	.
.	8A/ 8f#/	.
.	8c#/	.
4AA/	8A/ 8f#/	16a/LL
.	.	16cc#/JJ
.	8c#/J	16a/LL
.	.	16f#/JJ
=11	=11	=11
[2BB/	8r	8.e/
.	8G#/ 8B/ 8e/L	.
.	.	16B/
.	8G#/ 8B/ 8e/	4.g#/
.	8G#/ 8B/ 8e/J	.
4BBB/ 4BB/]	8r	.
.	8A/ 8B/ 8d#/	8f#/
=12	=12	=12
8EE/ 8E/L	8G#/ 8B/ 8e/L	4e/
8EE/ 8E/	8G#/ 8B/ 8e/	.
8EE/ 8E/	8G#/ 8B/ 8e/	4r
8EE/ 8E/	8G#/ 8B/ 8e/	.
8EE/ 8E/	8G#/ 8B/ 8e/	8.e/
8EE/ 8E/J	8G#/ 8B/ 8e/J	.
.	.	16f#/
=13	=13	=13
8EE/ 8E/L	8G#/ 8B/ 8e/L	4.g#/
8EE/ 8E/	8G#/ 8B/ 8e/	.
8EE/ 8E/	8G#/ 8B/ 8e/	.
8EE/ 8E/	8G#/ 8B/ 8e/	8e/
8EE/ 8E/	8G#/ 8B/ 8e/	8g#/
8EE/ 8E/J	8G#/ 8B/ 8e/J	8a/
=14	=14	=14
8EE/ 8E/L	8G#/ 8B/ 8e/L	2b\
8EE/ 8E/	8G#/ 8B/ 8e/	.
8EE/ 8E/	8G#/ 8B/ 8e/	.
8EE/ 8E/	8G#/ 8B/ 8e/	.
8EE/ 8E/	8G#/ 8B/ 8e/	8.g#/
8EE/ 8E/J	8G#/ 8B/ 8e/J	.
.	.	16a/
=15	=15	=15
8EE/ 8E/L	8G#/ 8B/ 8e/L	4.b\
8EE/ 8E/	8G#/ 8B/ 8e/	.
8EE/ 8E/	8G#/ 8B/ 8e/	.
8EE/ 8E/	8Gn/ 8A#/ 8e/	8a#^/
8EE/ 8E/	8G#^/ 8B^/ 8e^/	8b^\
8EE/ 8E/J	8An^/ 8c#^/ 8e^/J	8cc#^\
=16	=16	=16
8EE/ 8E/L	8B/ 8d/ 8e/L	(2.dd\
8EE/ 8E/	8B/ 8d/ 8e/	.
8EE/ 8E/	8B/ 8d/ 8e/	.
8EE/ 8E/	8B/ 8d/ 8e/	.
8EE/ 8E/	8G#/ 8B/ 8e/	.
8EE/ 8E/J	8G#/ 8B/ 8e/J	.
=17	=17	=17
2.AAA\ 2.AA\	8A/ 8c#/ 8e/	2cc#\)
.	8E/	.
.	8c#/ 8e/	.
.	8E/	.
.	(12B/ 12d/L	(12b\L
.	12c#/ 12e/	12cc#\
.	12B/) 12d/J	12b\J)
=18	=18	=18
2.AAA\ 2.AA\	8A/ 8c#/	2a/
.	8E	.
.	8c#/ 8e/	.
.	8E	.
.	8A/ 8c#/	4e/
.	8E	.
=19	=19	=19
*^	*	*
8G#/ 8B/L	2.EE\	2.r	(4e/
8E/	.	.	.
8B/ 8d/	.	.	8f#/L
8E/	.	.	8g#/J)
8G#/ 8B/	.	.	(8a/L
8E/J	.	.	8b/J)
=20	=20	=20	=20
8A/ 8c#/L	2.AAA\ 2.AA\	2.r	2cc#\
8E/	.	.	.
8c#/ 8e/	.	.	.
8E/	.	.	.
8A/ 8c#/	.	.	4r
8E/J	.	.	.
=21	=21	=21	=21
8r	2.DD\	2.r	(4f#/
8F#/L	.	.	.
8B/ 8d/	.	.	4cc#\)
8F#/	.	.	.
8B/ 8d/	.	.	8r
8F#/J	.	.	8b\
=22	=22	=22	=22
8r	2.EE\	2.r	(2e/
8E/L	.	.	.
8A/ 8c#/	.	.	.
8E/	.	.	.
8A/ 8c#/	.	.	4a/)
8E/J	.	.	.
=23	=23	=23	=23
8G#/ 8B/L	2.EE\	2.r	4g#^/
8E/	.	.	.
8A/ 8c#/	.	.	4a/
8E/	.	.	.
8B/ 8d/	.	.	4b^\
8E/J	.	.	.
=24	=24	=24	=24
8c#/ 8e/L	2AAA\ 2AA\	2.r	2.cc#^\
8E/	.	.	.
8A/ 8c#/	.	.	.
8E/	.	.	.
8c#/ 8e/	4r	.	.
8E/J	.	.	.
=25	=25	=25	=25
8r	2.DD\	2.r	(4.ee\
8F#/L	.	.	.
8B/ 8d/	.	.	.
8F#/	.	.	8dd\)
8B/ 8d/	.	.	8f#/L
8F#/J	.	.	8b/J
=26	=26	=26	=26
8r	2.EE\	2.r	2b^\
8E/L	.	.	.
8A/ 8c#/	.	.	.
8E/	.	.	.
8A/ 8c#/	.	.	4a/
8E/J	.	.	.
=27	=27	=27	=27
8G#/ 8B/L	2.EE\	2.r	(4g#/
8E/	.	.	.
8c#/ 8e/	.	.	4.cc#\)
8E/	.	.	.
8c#/ 8e/	.	.	.
8B/ 8d/J	.	.	8b\
=28	=28	=28	=28
8A/ 8c#/L	2AAA\ 2AA\	2r	2a/
8E/J	.	.	.
4c#/ 4e/	.	.	.
*v	*v	*	*
==	==	==
*-	*-	*-
!!!ENC: Craig Stuart Sapp
!!!END: 2004/06/07/
!!!EFL: 116/651
